X:1
T:The Tarpaulin Jacket
M:3/4
L:1/4
K:Eb
 z2 B| G G G| A B A| G B z| z z B| c c c| B G E| F2 B| B z B/2B/2|\
 G G G| A B A| G B z| z z B| c d e| G A F| E3-| E z B/2A/2| G G G|\
 A B A| G B z| G B B| c c c| B/2 G3/2 E| F2 B| B- =A _A| G G G| A B A|\
 G/2G/2 B z| G/2G/2B/2 z/2 B| c d e| G A F| E3-| E z z|

